X: 1
T: Shalom Aleichem #3   [Am]
C: Rabbi Israel Goldfarb 1918
%C: lyrics: Kabbalists of Safed (ca.1600)
C: melody: Israel Goldfarb (1918)
D: Andy Statman & David Grisman "Songs of our Fathers"
B: Harvard Hillel Sabbath Songbook
Z: John Chambers <jc:trillian.mit.edu>
M: C
L: 1/8
K: Am
[| "Am"E2 cB A2 A2 | "E7"^GA BA GF E2 |\
[1 ^G-G G2 "Am"AG Ac | "E7"B4 z4 :|\
[2 "Dm"D-D A2 ^G2 F{E}D | "E"E4 z4 [|\
| "C"cd e-e e2 e2 |
| "G7"dc Bc "E7"de d2 \
| "Am"cB AB c2 e2 | "E7"B4 z4 |\
| "Dm"B2 d2 d2 d2 | "E7"df ed "Am"cB A2 \
| AB c2 "E7"BA ^GB | "Am"A4 z4 |]
